docs/assets/images/simple-illustration__company-share-alt.svg

<svg width="48" height="48" viewBox="0 0 48 48" fill="none" xmlns="http://www.w3.org/2000/svg">
<path d="M10.7494 37.5301V14.8635H11.0438C11.0438 15.8723 11.9946 16.6891 13.1692 16.6891C14.3439 16.6891 15.2919 15.8723 15.2919 14.8635V14.5664H30.5747V14.8635C30.5747 15.8723 31.5255 16.6891 32.6974 16.6891C33.8692 16.6891 34.82 15.8723 34.82 14.8635V14.5664H36.242C37.2426 14.5664 38.0551 15.379 38.0551 16.3809V35.7142C38.0551 36.7161 37.2426 37.5287 36.242 37.5287H10.748L10.7494 37.5301Z" fill="#722B03"/>
<path d="M30.5762 14.5664H34.8229V14.8635C34.8229 15.8723 33.8721 16.6891 32.7002 16.6891C31.5283 16.6891 30.5776 15.8723 30.5776 14.8635V14.5664H30.5762Z" fill="#FED607"/>
<path d="M15.2925 14.5664V14.8635C15.2925 15.8723 14.3417 16.6891 13.1699 16.6891C11.998 16.6891 11.0444 15.8723 11.0444 14.8635V14.5664H15.2925Z" fill="#FED607"/>
<path d="M18.4272 14.5666H15.293V8.18205C15.293 7.20917 16.0807 6.4187 17.0563 6.4187H28.7848C29.7577 6.4187 30.5482 7.20917 30.5482 8.18205V14.5666H27.5369V10.7732C27.5369 9.8003 26.7492 9.01122 25.775 9.01122H20.1892C19.2163 9.01122 18.4258 9.79892 18.4258 10.7732V14.5666H18.4272Z" fill="#722B03"/>
<path d="M10.749 14.8636V37.5288H8.16613C7.16561 37.5288 6.35303 36.7162 6.35303 35.7143V16.3824C6.35303 15.3805 7.16561 14.5679 8.16613 14.5679H11.0433V14.865H10.749V14.8636Z" fill="#722B03"/>
<path d="M34.8209 14.5664H36.243C37.2435 14.5664 38.0561 15.379 38.0561 16.3809V35.7142C38.0561 36.7161 37.2435 37.5287 36.243 37.5287H8.16613C7.16561 37.5287 6.35303 36.7161 6.35303 35.7142V16.3823C6.35303 15.3804 7.16561 14.5678 8.16613 14.5678H34.8209V14.5664Z" stroke="#002140" stroke-width="0.705882" stroke-linecap="round" stroke-linejoin="round"/>
<path d="M10.7495 37.5303V14.8638" stroke="#002140" stroke-width="0.705882" stroke-linecap="round" stroke-linejoin="round"/>
<path d="M15.2925 14.8638C15.2925 15.8726 14.3417 16.6893 13.1699 16.6893C11.998 16.6893 11.0444 15.8726 11.0444 14.8638" stroke="#002140" stroke-width="0.705882" stroke-linecap="round" stroke-linejoin="round"/>
<path d="M34.8215 14.8638C34.8215 15.8726 33.8707 16.6893 32.6988 16.6893C31.5269 16.6893 30.5762 15.8726 30.5762 14.8638" stroke="#002140" stroke-width="0.705882" stroke-linecap="round" stroke-linejoin="round"/>
<path d="M15.293 14.4201V8.18205C15.293 7.20917 16.0807 6.4187 17.0563 6.4187H28.7848C29.7577 6.4187 30.5482 7.20917 30.5482 8.18205V14.4201" stroke="#002140" stroke-width="0.705882" stroke-linecap="round" stroke-linejoin="round"/>
<path d="M18.4258 14.5666V10.7732C18.4258 9.80032 19.2163 9.01123 20.1891 9.01123H25.7749C26.7478 9.01123 27.5369 9.79893 27.5369 10.7732V14.3455" stroke="#002140" stroke-width="0.705882" stroke-linecap="round" stroke-linejoin="round"/>
<path d="M32.5854 26.8406C32.2922 26.7724 30.5737 26.4383 28.9143 26.6906C27.2549 26.9429 25.9978 27.243 25.9978 27.243C25.9978 27.243 25.4955 25.7859 23.8361 26.0359C22.1767 26.2883 20.2149 28.6501 19.8126 31.6165C19.4103 34.583 21.672 36.1423 21.672 36.1423C21.672 36.1423 23.1814 39.5111 24.2361 39.7635C25.2932 40.0158 33.6902 43.3346 33.6902 43.3346C33.6902 43.3346 34.9972 43.0322 35.2995 42.8822C35.6019 42.7322 36.2543 42.0775 36.2543 42.0775C36.2543 42.0775 37.059 42.5799 37.8136 42.0775C38.5683 41.5751 38.9207 40.8205 38.9207 40.8205C38.9207 40.8205 40.43 40.1158 40.5301 39.7635C40.6301 39.4111 40.8824 38.5064 40.8824 38.5064C40.8824 38.5064 40.0277 34.1329 37.7659 32.8235C35.5041 31.5165 34.6994 30.7618 34.6994 30.7618C34.6994 30.7618 34.3471 27.243 32.5877 26.8406H32.5854Z" fill="#FFFAF0"/>
<path d="M41.8892 26.2382L40.4821 26.6905L39.9298 27.2929C39.9298 27.2929 37.2156 23.6718 35.8063 24.0241C34.3992 24.3765 33.2922 25.6335 33.2922 25.6335C33.2922 25.6335 32.242 27.9499 31.0304 29.1023C29.8188 30.2571 28.6663 31.8165 29.6733 32.9735C30.6781 34.1305 32.3375 33.8282 33.3945 32.7735C34.4515 31.7165 34.7015 30.7617 34.7015 30.7617L36.7633 31.9188C36.7633 31.9188 41.1368 36.1923 40.8868 38.5063C40.8868 38.5063 41.9938 38.3063 42.1938 38.054C42.3938 37.8017 43.1485 36.3946 43.1485 36.3946C43.1485 36.3946 46.065 36.4446 45.6626 31.5164C45.2603 27.9453 41.8915 26.2359 41.8915 26.2359L41.8892 26.2382Z" fill="#5AB0FF"/>
<path d="M33.1897 42.88C33.1897 42.88 32.485 40.1658 32.185 40.0135C31.8849 39.8612 30.8279 39.8635 30.8279 39.8635C30.8279 39.8635 29.7709 39.5362 29.8732 41.0705C29.9732 42.6049 31.1802 43.7347 31.1802 43.7347L33.192 42.88H33.1897Z" fill="#5AB0FF"/>
<path d="M30.9279 39.0085C30.9279 39.0085 29.4185 37.0968 28.8661 37.2491C28.3138 37.3991 27.3568 39.1608 27.2568 39.3609C27.1567 39.5609 27.1567 42.025 27.1567 42.025C27.1567 42.025 27.9114 42.7797 28.1615 42.7797C28.4115 42.7797 30.0209 42.4773 30.0209 42.4773L30.3732 40.0633L30.8256 39.8632L30.9256 39.0085H30.9279Z" fill="#5AB0FF"/>
<path d="M27.2568 38.204C27.3068 37.7517 25.7997 36.947 25.3973 37.1993C24.995 37.4516 24.3403 38.9087 24.3403 38.9087C24.3403 38.9087 24.5404 40.7181 25.3451 41.1205C26.1498 41.5228 26.7521 41.5728 26.8022 41.4228C26.8522 41.2728 27.2045 38.6564 27.2545 38.204H27.2568Z" fill="#5AB0FF"/>
<path d="M21.5701 35.99C19.9334 35.4376 19.3537 32.7803 20.2744 30.0525C21.195 27.3248 23.2658 25.5608 24.9025 26.1132C25.2662 26.2359 25.5776 26.4632 25.8322 26.7724" stroke="#002140" stroke-width="0.705176" stroke-linecap="round" stroke-linejoin="round"/>
<path d="M43.1528 36.3877C45.4964 36.3559 46.1465 33.228 45.3305 30.4662C44.5144 27.7043 42.5117 25.8653 40.8546 26.3541C40.4864 26.4632 40.1659 26.6768 39.8999 26.9769" stroke="#002140" stroke-width="0.705176" stroke-linecap="round" stroke-linejoin="round"/>
<path d="M23.8882 29.2296C24.2405 28.2749 26.7774 25.4153 32.6102 26.8701" stroke="#002140" stroke-width="0.705176" stroke-linecap="round" stroke-linejoin="round"/>
<path d="M21.9756 33.603C21.9756 33.603 20.8186 37.7765 24.0874 39.5359" stroke="#002140" stroke-width="0.705176" stroke-linecap="round" stroke-linejoin="round"/>
<path d="M27.3683 38.5359C27.3683 38.5359 27.3069 37.0742 25.7976 37.0742C24.2882 37.0742 23.1834 41.0977 26.5523 41.4477" stroke="#002140" stroke-width="0.705176" stroke-linecap="round" stroke-linejoin="round"/>
<path d="M30.928 39.3359C30.928 39.3359 30.728 37.3742 29.0163 37.3242C27.3069 37.2742 26.8545 39.9383 26.9045 40.9953C26.9545 42.0523 28.0616 43.6094 29.971 42.6047" stroke="#002140" stroke-width="0.705176" stroke-linecap="round" stroke-linejoin="round"/>
<path d="M33.0897 42.9571C33.0897 42.9571 33.0147 39.677 31.053 39.677C29.0913 39.677 29.6959 43.2981 31.4303 43.5232C33.1647 43.7505 33.0897 42.9571 33.0897 42.9571" stroke="#002140" stroke-width="0.705176" stroke-linecap="round" stroke-linejoin="round"/>
<path d="M37.5387 30.0205C37.5387 30.0205 36.9363 31.2275 36.0293 31.3026" stroke="#002140" stroke-width="0.705176" stroke-linecap="round" stroke-linejoin="round"/>
<path d="M41.1209 29.1158C39.882 27.3837 38.4068 25.4379 36.5405 24.3559C36.1563 24.1331 35.7063 23.9876 35.2698 24.0649C34.0219 24.2854 33.2103 25.9039 32.6102 26.8699C32.2102 27.5132 31.826 28.1702 31.3532 28.7635C30.9008 29.3318 30.2916 29.7137 29.8143 30.2569C29.1664 30.9934 28.805 32.5505 29.8461 33.1506C30.8258 33.7167 34.1833 33.5644 35.3153 29.5295" stroke="#002140" stroke-width="0.705176" stroke-linecap="round" stroke-linejoin="round"/>
<path d="M34.9741 30.9253C34.9741 30.9253 40.5933 33.528 40.932 38.2039C41.007 40.3543 39.1226 40.618 39.1226 40.618" stroke="#002140" stroke-width="0.705176" stroke-linecap="round" stroke-linejoin="round"/>
<path d="M34.938 35.1125C34.938 35.1125 38.7478 37.563 38.7478 40.7318C38.7478 41.7888 37.7294 42.6162 36.2587 42.2775" stroke="#002140" stroke-width="0.705176" stroke-linecap="round" stroke-linejoin="round"/>
<path d="M32.1826 36.2808C32.1826 36.2808 35.9924 38.7312 35.9924 41.9C35.9924 42.957 34.6126 44.0345 33.0601 43.1184" stroke="#002140" stroke-width="0.705176" stroke-linecap="round" stroke-linejoin="round"/>
<path d="M39.7636 31.0776C39.7636 31.0776 40.216 33.0757 38.5952 33.228" stroke="#002140" stroke-width="0.705176" stroke-linecap="round" stroke-linejoin="round"/>
<path d="M41.0459 38.4674C41.0459 38.4674 43.8373 38.3538 43.1577 34.0166" stroke="#002140" stroke-width="0.705176" stroke-linecap="round" stroke-linejoin="round"/>
</svg>

<svg xmlns="http://www.w3.org/2000/svg" width="48" height="48" fill="none" viewBox="0 0 48 48"><path fill="#722b03" d="M10.75 37.53V14.864h.294c0 1.008.95 1.825 2.125 1.825s2.123-.817 2.123-1.825v-.298h15.283v.297c0 1.01.95 1.826 2.122 1.826s2.123-.817 2.123-1.825v-.298h1.422c1 0 1.813.813 1.813 1.815v19.333a1.814 1.814 0 0 1-1.813 1.815H10.748z"/><path fill="#fed607" d="M30.576 14.566h4.247v.297c0 1.01-.95 1.826-2.123 1.826-1.172 0-2.122-.817-2.122-1.825v-.298zm-15.283 0v.297c0 1.01-.951 1.826-2.123 1.826s-2.126-.817-2.126-1.825v-.298z"/><path fill="#722b03" d="M18.427 14.567h-3.134V8.182c0-.973.788-1.763 1.763-1.763h11.729c.973 0 1.763.79 1.763 1.763v6.385h-3.011v-3.794c0-.973-.788-1.762-1.762-1.762h-5.586c-.973 0-1.763.788-1.763 1.762v3.794zm-7.678.297v22.665H8.166c-1 0-1.813-.813-1.813-1.815V16.382c0-1.002.813-1.814 1.813-1.814h2.877v.297z"/><path stroke="#002140" stroke-linecap="round" stroke-linejoin="round" stroke-width=".706" d="M34.82 14.566h1.423c1 0 1.813.813 1.813 1.815v19.333a1.814 1.814 0 0 1-1.813 1.815H8.166c-1 0-1.813-.813-1.813-1.815V16.382c0-1.002.813-1.814 1.813-1.814h26.655zM10.75 37.53V14.864"/><path stroke="#002140" stroke-linecap="round" stroke-linejoin="round" stroke-width=".706" d="M15.293 14.864c0 1.009-.951 1.825-2.123 1.825s-2.126-.816-2.126-1.825m23.778 0c0 1.009-.951 1.825-2.123 1.825s-2.123-.816-2.123-1.825m-15.283-.444V8.182c0-.973.788-1.763 1.763-1.763h11.729c.973 0 1.763.79 1.763 1.763v6.238"/><path stroke="#002140" stroke-linecap="round" stroke-linejoin="round" stroke-width=".706" d="M18.426 14.567v-3.794c0-.973.79-1.762 1.763-1.762h5.586c.973 0 1.762.788 1.762 1.762v3.573"/><path fill="#fffaf0" d="M32.585 26.84c-.293-.068-2.011-.402-3.67-.15-1.66.253-2.917.553-2.917.553s-.503-1.457-2.162-1.207c-1.66.252-3.621 2.614-4.023 5.58-.403 2.967 1.859 4.526 1.859 4.526s1.51 3.37 2.564 3.621c1.057.253 9.454 3.572 9.454 3.572s1.307-.303 1.61-.453c.302-.15.954-.804.954-.804s.805.502 1.56 0c.754-.503 1.107-1.258 1.107-1.258s1.509-.704 1.61-1.056c.1-.353.351-1.258.351-1.258s-.854-4.373-3.116-5.682c-2.262-1.307-3.067-2.062-3.067-2.062s-.352-3.519-2.111-3.921z"/><path fill="#5ab0ff" d="m41.89 26.238-1.408.453-.552.602s-2.714-3.621-4.124-3.269c-1.407.352-2.514 1.61-2.514 1.61s-1.05 2.316-2.262 3.468c-1.211 1.155-2.364 2.715-1.357 3.872 1.005 1.157 2.665.854 3.722-.2 1.056-1.058 1.306-2.012 1.306-2.012l2.062 1.157s4.374 4.273 4.124 6.587c0 0 1.107-.2 1.307-.452s.954-1.66.954-1.66 2.917.05 2.515-4.878c-.403-3.57-3.771-5.28-3.771-5.28zm-8.7 16.642s-.705-2.714-1.005-2.867c-.3-.152-1.357-.15-1.357-.15s-1.057-.327-.955 1.208c.1 1.534 1.307 2.664 1.307 2.664l2.012-.855z"/><path fill="#5ab0ff" d="M30.928 39.009s-1.51-1.912-2.062-1.76c-.552.15-1.51 1.912-1.61 2.112s-.1 2.664-.1 2.664.755.755 1.006.755c.25 0 1.859-.303 1.859-.303l.352-2.414.453-.2.1-.855zm-3.671-.805c.05-.452-1.457-1.257-1.86-1.005-.402.253-1.057 1.71-1.057 1.71s.2 1.81 1.005 2.212 1.407.452 1.457.302.402-2.767.453-3.219z"/><path stroke="#002140" stroke-linecap="round" stroke-linejoin="round" stroke-width=".705" d="M21.57 35.99c-1.637-.552-2.216-3.21-1.296-5.938s2.992-4.491 4.628-3.939c.364.123.676.35.93.66m17.321 9.615c2.343-.032 2.994-3.16 2.178-5.922s-2.82-4.6-4.476-4.112c-.369.11-.69.323-.955.623"/><path stroke="#002140" stroke-linecap="round" stroke-linejoin="round" stroke-width=".705" d="M23.888 29.23c.352-.955 2.89-3.815 8.722-2.36m-10.634 6.733s-1.157 4.173 2.111 5.933"/><path stroke="#002140" stroke-linecap="round" stroke-linejoin="round" stroke-width=".705" d="M27.368 38.536s-.061-1.462-1.57-1.462-2.615 4.024.754 4.374"/><path stroke="#002140" stroke-linecap="round" stroke-linejoin="round" stroke-width=".705" d="M30.928 39.336s-.2-1.962-1.912-2.012c-1.71-.05-2.161 2.614-2.111 3.671s1.157 2.614 3.066 1.61"/><path stroke="#002140" stroke-linecap="round" stroke-linejoin="round" stroke-width=".705" d="M33.09 42.957s-.075-3.28-2.037-3.28-1.357 3.621.377 3.846c1.735.227 1.66-.566 1.66-.566m4.449-12.937s-.603 1.207-1.51 1.283"/><path stroke="#002140" stroke-linecap="round" stroke-linejoin="round" stroke-width=".705" d="M41.12 29.116c-1.238-1.732-2.713-3.678-4.58-4.76-.384-.223-.834-.368-1.27-.291-1.248.22-2.06 1.839-2.66 2.805-.4.643-.784 1.3-1.257 1.893-.452.569-1.061.95-1.539 1.494-.648.736-1.009 2.293.032 2.894.98.566 4.337.413 5.47-3.622"/><path stroke="#002140" stroke-linecap="round" stroke-linejoin="round" stroke-width=".705" d="M34.974 30.925s5.62 2.603 5.958 7.279c.075 2.15-1.81 2.414-1.81 2.414"/><path stroke="#002140" stroke-linecap="round" stroke-linejoin="round" stroke-width=".705" d="M34.938 35.113s3.81 2.45 3.81 5.619c0 1.057-1.019 1.884-2.49 1.546"/><path stroke="#002140" stroke-linecap="round" stroke-linejoin="round" stroke-width=".705" d="M32.183 36.28s3.81 2.451 3.81 5.62c0 1.057-1.38 2.135-2.933 1.218m6.704-12.04s.452 1.998-1.169 2.15m2.451 5.239s2.791-.113 2.112-4.45"/></svg>
